fritzing/parts/svg/core/schematic/basic_transistor_pnp.svg

<?xml version="1.0" encoding="UTF-8" standalone="no"?>
<svg
   xmlns:dc="http://purl.org/dc/elements/1.1/"
   xmlns:cc="http://creativecommons.org/ns#"
   xmlns:rdf="http://www.w3.org/1999/02/22-rdf-syntax-ns#"
   xmlns:svg="http://www.w3.org/2000/svg"
   xmlns="http://www.w3.org/2000/svg"
   xmlns:sodipodi="http://sodipodi.sourceforge.net/DTD/sodipodi-0.dtd"
   xmlns:inkscape="http://www.inkscape.org/namespaces/inkscape"
   version="1.2"
   baseProfile="tiny"
   x="0px"
   y="0px"
   width=".58in"
   height=".72in"
   id="svg2" >


     

  <g
     id="schematic"
     style="display:inline"
     transform="translate(18,0)">
     
   <g
     transform="translate(-18,0)">
  <rect
     id="connector2pin"
     x="42.632999"
     y="1.237"
     width="1.893"
     height="9.783" />
  <rect
     id="connector2terminal"
     x="43.140999"
     y="0.87599999"
     width="0.86699998"
     height="0.68400002" />
  <rect
     id="connector1pin"
     x="42"
     y="52.569004"
     width="1.893"
     height="9.7810001" />
  <rect
     id="connector1terminal"
     x="43"
     y="62.131001"
     width="0.86699998"
     height="0.68599999" />
  <rect
     id="connector0pin"
     x="2.0570002"
     y="30.747"
     width="9.7810001"
     height="1.893" />
  <rect
     id="connector0terminal"
     x="1.5909996"
     y="31.268"
     width="0.68599999"
     height="0.86699998" />
     </g>    
     
    <g
       id="g10">
      <path
         d="M 24,62.040174 L 24,44.135174 C 24,43.520174 24.498,43.023174 25.113,43.023174 L 25.113,43.023174 C 25.728,43.023174 26.226,43.520174 26.226,44.135174 L 26.226,44.135174 L 26.226,62.040174 C 26.226,62.655174 25.728,63.152174 25.113,63.152174 L 25.113,63.152174 C 24.498,63.152174 24,62.655174 24,62.040174 L 24,62.040174 z"
         id="path12" />
    </g>
    <g
       id="g14">
      <path
         d="M 24.463,19.799 L 24.463,1.742 C 24.463,1.126 24.961,0.628 25.578,0.628 L 25.578,0.628 C 26.193,0.628 26.691,1.126 26.691,1.742 L 26.691,1.742 L 26.691,19.799 C 26.691,20.414 26.193,20.912 25.578,20.912 L 25.578,20.912 C 24.961,20.912 24.463,20.414 24.463,19.799 L 24.463,19.799 z"
         id="path16" />
    </g>
    <g
       id="g18">
      <polygon
         points="9.719,45.658 9.719,17.954 11.947,17.954 11.947,45.658 9.719,45.658 "
         id="polygon20"
         transform="matrix(1,0,0,0.7774624,1.5740891,6.6189225)" />
    </g>
    <circle
       cx="16.556999"
       cy="31.806999"
       r="14.953"
       id="circle22"
       style="fill:none;stroke:#000000;stroke-width:1.84990001" />
    <g
       id="g24"
       transform="matrix(1.0465553,0,0,1,0.772538,0)">
      <path
         d="M -15.345,33 C -16.034,33 -16.594,32.442 -16.594,31.753 L -16.594,31.753 C -16.594,31.062 -16.034,30.504 -15.345,30.504 L -15.345,30.504 L 10.333,30.504 C 11.022,30.504 11.582,31.062 11.582,31.753 L 11.582,31.753 C 11.582,32.442 11.022,33 10.333,33 L 10.333,33 L -15.345,33 L -15.345,33 z"
         id="path26" />
    </g>
    <g
       id="g28"
       transform="matrix(0,0.7099862,-1.0297267,0,58.7496,10.788261)">
      <g
         id="g30">
        <path
           id="path32"
           d="" />
      </g>
      <g
         id="g34">
        <polygon
           points="10.339,32.678 11.657,31.172 19.455,37.998 18.139,39.502 10.339,32.678 "
           id="polygon36"
           transform="matrix(1.4256113,0,0,1.2446815,-3.2918603,-7.8819855)" />
      </g>
      <g
         id="g38">
        <polygon
           points="20.024,35.706 25.265,44.41 15.942,40.371 20.024,35.706 "
           id="polygon40"
           transform="matrix(1.7264212,0.2098908,-0.3181973,1.2442444,-1.6662008,-15.637073)" />
      </g>
    </g>
    <g
       id="g42"
       transform="matrix(0,0.7132717,-1.0489602,0,45.677399,26.264345)">
      <polygon
         points="10.168,30.921 24.929,19.084 26.18,20.644 11.419,32.48 10.168,30.921 "
         id="polygon44" />
    </g>
  </g>
</svg>

<?xml version="1.0" encoding="utf-8"?>
<!-- Generator: Adobe Illustrator 16.0.0, SVG Export Plug-In . SVG Version: 6.00 Build 0)  -->
<!DOCTYPE svg PUBLIC "-//W3C//DTD SVG 1.1//EN" "http://www.w3.org/Graphics/SVG/1.1/DTD/svg11.dtd">
<svg version="1.1"
	 id="svg2" xmlns:rdf="http://www.w3.org/1999/02/22-rdf-syntax-ns#" xmlns:cc="http://creativecommons.org/ns#" xmlns:dc="http://purl.org/dc/elements/1.1/" xmlns:svg="http://www.w3.org/2000/svg" xmlns:inkscape="http://www.inkscape.org/namespaces/inkscape" xmlns:sodipodi="http://sodipodi.sourceforge.net/DTD/sodipodi-0.dtd"
	 xmlns="http://www.w3.org/2000/svg" xmlns:xlink="http://www.w3.org/1999/xlink" x="0px" y="0px" width="51.047px"
	 height="63.152px" viewBox="0 0 51.047 63.152" enable-background="new 0 0 51.047 63.152" xml:space="preserve">
<g id="schematic" transform="translate(18,0)">
	<g transform="translate(-18,0)">
		<rect id="connector2pin" x="42.633" y="1.237" width="1.894" height="9.783"/>
		<rect id="connector2terminal" x="43.142" y="0.876" width="0.866" height="0.684"/>
		<rect id="connector1pin" x="42" y="52.568" width="1.894" height="9.781"/>
		<rect id="connector1terminal" x="43" y="62.131" width="0.867" height="0.686"/>
		<rect id="connector0pin" x="2.057" y="30.747" width="9.781" height="1.894"/>
		<rect id="connector0terminal" x="1.591" y="31.268" width="0.686" height="0.867"/>
	</g>
	<g id="g10">
		<path id="path12" d="M24,62.04V44.135c0-0.615,0.498-1.111,1.112-1.111l0,0c0.615,0,1.113,0.496,1.113,1.111l0,0V62.04
			c0,0.615-0.498,1.112-1.113,1.112l0,0C24.498,63.152,24,62.655,24,62.04L24,62.04z"/>
	</g>
	<g id="g14">
		<path id="path16" d="M24.463,19.799V1.742c0-0.616,0.498-1.114,1.115-1.114l0,0c0.614,0,1.112,0.498,1.112,1.114l0,0v18.057
			c0,0.615-0.498,1.113-1.112,1.113l0,0C24.961,20.912,24.463,20.414,24.463,19.799L24.463,19.799z"/>
	</g>
	<g id="g18">
		<polygon id="polygon20" points="11.293,42.116 11.293,20.578 13.521,20.578 13.521,42.116 		"/>
	</g>
	<circle id="circle22" fill="none" stroke="#000000" stroke-width="1.8499" cx="16.558" cy="31.807" r="14.953"/>
	<g id="g24" transform="matrix(1.0465553,0,0,1,0.772538,0)">
		<path id="path26" d="M-15.345,33c-0.689,0-1.249-0.559-1.249-1.247l0,0c0-0.69,0.56-1.249,1.249-1.249l0,0h25.678
			c0.689,0,1.249,0.559,1.249,1.249l0,0c0,0.688-0.56,1.247-1.249,1.247l0,0H-15.345L-15.345,33z"/>
	</g>
	<g id="g28" transform="matrix(0,0.7099862,-1.0297267,0,58.7496,10.788261)">
		<g id="g30">
			<path id="path32" d="M0,0.001"/>
		</g>
		<g id="g34">
			<polygon id="polygon36" points="11.448,32.791 13.327,30.917 24.443,39.413 22.567,41.285 			"/>
		</g>
		<g id="g38">
			<polygon id="polygon40" points="21.542,32.992 27.821,44.923 13.01,37.941 			"/>
		</g>
	</g>
	<g id="g42" transform="matrix(0,0.7132717,-1.0489602,0,45.677399,26.264345)">
		<polygon id="polygon44" points="10.169,30.92 24.928,19.084 26.18,20.644 11.419,32.481 		"/>
	</g>
</g>
</svg>
